packages/wallets/icons/walletconnect.svg

<svg height="185" viewBox="0 0 300 185" width="300" xmlns="http://www.w3.org/2000/svg"><path d="m61.4385429 36.2562612c48.9112241-47.8881663 128.2119871-47.8881663 177.1232091 0l5.886545 5.7634174c2.445561 2.3944081 2.445561 6.2765112 0 8.6709204l-20.136695 19.715503c-1.222781 1.1972051-3.2053 1.1972051-4.428081 0l-8.100584-7.9311479c-34.121692-33.4079817-89.443886-33.4079817-123.5655788 0l-8.6750562 8.4936051c-1.2227816 1.1972041-3.205301 1.1972041-4.4280806 0l-20.1366949-19.7155031c-2.4455612-2.3944092-2.4455612-6.2765122 0-8.6709204zm218.7677961 40.7737449 17.921697 17.546897c2.445549 2.3943969 2.445563 6.2764769.000031 8.6708899l-80.810171 79.121134c-2.445544 2.394426-6.410582 2.394453-8.85616.000062-.00001-.00001-.000022-.000022-.000032-.000032l-57.354143-56.154572c-.61139-.598602-1.60265-.598602-2.21404 0-.000004.000004-.000007.000008-.000011.000011l-57.3529212 56.154531c-2.4455368 2.394432-6.4105755 2.394472-8.8561612.000087-.0000143-.000014-.0000296-.000028-.0000449-.000044l-80.81241943-79.122185c-2.44556021-2.394408-2.44556021-6.2765115 0-8.6709197l17.92172963-17.5468673c2.4455602-2.3944082 6.4105989-2.3944082 8.8561602 0l57.3549775 56.155357c.6113908.598602 1.602649.598602 2.2140398 0 .0000092-.000009.0000174-.000017.0000265-.000024l57.3521031-56.155333c2.445505-2.3944633 6.410544-2.3945531 8.856161-.0002.000034.0000336.000068.0000673.000101.000101l57.354902 56.155432c.61139.598601 1.60265.598601 2.21404 0l57.353975-56.1543249c2.445561-2.3944092 6.410599-2.3944092 8.85616 0z" fill="#3b99fc"/></svg>

<svg width="300px" height="185px" viewBox="0 0 300 185" version="1.1" xmlns="http://www.w3.org/2000/svg">
    <g id="Page-1" stroke="none" stroke-width="1" fill="none" fill-rule="evenodd">
        <g id="walletconnect-logo-alt" fill="#3B99FC" fill-rule="nonzero">
            <path
                d="M61.4385429,36.2562612 C110.349767,-11.6319051 189.65053,-11.6319051 238.561752,36.2562612 L244.448297,42.0196786 C246.893858,44.4140867 246.893858,48.2961898 244.448297,50.690599 L224.311602,70.406102 C223.088821,71.6033071 221.106302,71.6033071 219.883521,70.406102 L211.782937,62.4749541 C177.661245,29.0669724 122.339051,29.0669724 88.2173582,62.4749541 L79.542302,70.9685592 C78.3195204,72.1657633 76.337001,72.1657633 75.1142214,70.9685592 L54.9775265,51.2530561 C52.5319653,48.8586469 52.5319653,44.9765439 54.9775265,42.5821357 L61.4385429,36.2562612 Z M280.206339,77.0300061 L298.128036,94.5769031 C300.573585,96.9713 300.573599,100.85338 298.128067,103.247793 L217.317896,182.368927 C214.872352,184.763353 210.907314,184.76338 208.461736,182.368989 C208.461726,182.368979 208.461714,182.368967 208.461704,182.368957 L151.107561,126.214385 C150.496171,125.615783 149.504911,125.615783 148.893521,126.214385 C148.893517,126.214389 148.893514,126.214393 148.89351,126.214396 L91.5405888,182.368927 C89.095052,184.763359 85.1300133,184.763399 82.6844276,182.369014 C82.6844133,182.369 82.684398,182.368986 82.6843827,182.36897 L1.87196327,103.246785 C-0.573596939,100.852377 -0.573596939,96.9702735 1.87196327,94.5758653 L19.7936929,77.028998 C22.2392531,74.6345898 26.2042918,74.6345898 28.6498531,77.028998 L86.0048306,133.184355 C86.6162214,133.782957 87.6074796,133.782957 88.2188704,133.184355 C88.2188796,133.184346 88.2188878,133.184338 88.2188969,133.184331 L145.571,77.028998 C148.016505,74.6345347 151.981544,74.6344449 154.427161,77.028798 C154.427195,77.0288316 154.427229,77.0288653 154.427262,77.028899 L211.782164,133.184331 C212.393554,133.782932 213.384814,133.782932 213.996204,133.184331 L271.350179,77.0300061 C273.79574,74.6355969 277.760778,74.6355969 280.206339,77.0300061 Z"
                id="WalletConnect"></path>
        </g>
    </g>
</svg>
